X:1
T:I Wonder Who's Kissing Her Now
T:I Wonder Who's Kissing Her Now
T:Jos. E. Howard
T:Hough & Adams
C:Jos. E. Howard
Z:Hough & Adams
%%score [ 1 2 3 ]
L:1/8
M:3/4
K:F
V:1 treble-8 nm="Alto"
V:2 treble-8 nm="Tenor"
V:3 bass nm="Bass"
V:1
 c2 | A2 c2 A2 | G2 c2 G2 | F6- | F4 z2 | F2 A2 F2 | E2 A2 E2 | D6- | D4 z2 | B2 d2 B2 | A2 c2 A2 | %11
w: I|won- der who's|kiss- ing her|now,|_|Won- der who's|teach- ing her|how,|_|Won- der who's|look- ing in-|
 G4 F2 | D6 | A4 _A2 | G6 | d4 _d2 | c4 c2 | A2 c2 A2 | G2 c2 G2 | F6- | F4 E2 | F2 A2 F2 | %22
w: to her|eyes,|Breath- ing|sighs,|tell- ing|lies; I|won- der who's|buy- ing the|wine,|_ For|lips that I|
 E2 A2 E2 | D6- | D4 D2 | D2 E2 F2 | G2 F2 G2 | A2 c2 e2 | !fermata!d4 A2 | c2 B2 D2 | A2 G2 C2 | %31
w: used to call|mine,|_ I|won- der if|she ev- er|tells him of|me, I|won- der who's|kiss- ing her|
 A6- | A4 A2 | G2 G2 G2 | B2 A2 G2 | F6- | F4 |] %37
w: now|_ I|won- der who's|kiss- ing her|now.|_|
V:2
 E2 | F2 A2 F2 | B2 B2 B2 | (A4 _A2 | =A4) z2 | A2 F2 A2 | G2 G2 G2 | (F4 G2 | ^F4) z2 | G2 G2 G2 | %10
w: I|won- der who's|kiss- ing her|now, _|_|Won- der who's|teach- ing her|how, _|_|Won- der who's|
 ^F2 F2 F2 | =F4 G2 | F6 | F4 F2 | F6 | G4 G2 | E4 E2 | F2 A2 F2 | B2 B2 B2 | (A4 _A2 | =A4) B2 | %21
w: look- ing in-|to her|eyes,|Breath- ing|sighs,|tell- ing|lies; I|won- der who's|buy- ing the|wine, _|_ For|
 A2 F2 A2 | G2 G2 G2 | (F4 G2 | ^F4) F2 | G2 G2 G2 | E2 G2 F2 | F2 E2 G2 | !fermata!^F4 F2 | %29
w: lips that I|used to call|mine, _|_ I|won- der if|she ev- er|tells him of|me, I|
 =F2 G2 G2 | E2 E2 E2 | (F4 G2 | ^F4) F2 | =B2 B2 B2 | c2 c2 c2 | (_B6 | A4) |] %37
w: won- der who's|kiss- ing her|now _|_ I|won- der who's|kiss- ing her|now.|_|
V:3
 B,,2 | C,2 F,2 C,2 | E,2 E,2 E,2 | (C,2 _E,2 D,2 | C,4) z2 | C,2 C,2 C,2 | ^C,2 C,2 C,2 | (B,,6 | %8
w: I|won- der who's|kiss- ing her|now, _ _|_|Won- der who's|teach- ing her|how,|
 C,4) z2 | D,2 B,,2 D,2 | C,2 A,,2 C,2 | =B,,4 B,,2 | =B,,6 | =B,,4 D,2 | =B,,6 | _B,,4 B,,2 | %16
w: _|Won- der who's|look- ing in-|to her|eyes,|Breath- ing|sighs,|tell- ing|
 B,,4 B,,2 | C,2 F,2 C,2 | E,2 E,2 E,2 | (C,2 _E,2 D,2 | C,4) C,2 | C,2 C,2 C,2 | ^C,2 C,2 C,2 | %23
w: lies; I|won- der who's|buy- ing the|wine, _ _|_ For|lips that I|used to call|
 (B,,6 | C,4) C,2 | B,,2 B,,2 B,,2 | B,,2 B,,2 B,,2 | C,2 B,,2 ^C,2 | !fermata!=C,4 C,2 | %29
w: mine,|_ I|won- der if|she ev- er|tells him of|me, I|
 D,2 D,2 B,,2 | C,2 B,,2 B,,2 | (C,4 ^C,2 | =C,4) C,2 | F,2 F,2 F,2 | E,2 E,2 E,2 | (D,4 _D,2 | %36
w: won- der who's|kiss- ing her|now _|_ I|won- der who's|kiss- ing her|now. _|
 C,4) |] %37
w: _|

